X:1382
T:Keklik
C:anon.
O:Turkey
Z:Transcribed by Frank Nordberg - http://www.musicaviva.com
F:http://abc.musicaviva.com/tunes/turkey/keklik.abc
M:4/4
L:1/8
K:Dm
~c2 cB .c.c cB|~A2~A2~D2 z2|~c2 cB .c.c cB|~A2~A2~D2 z2|
c/_B/c/d/ ~c.B c/B/c/d/ ~c2/.B2/|~A2~A2~D2 z2|~d2 c=B cd cB|~A2~A2~D2 z2|
.c.c c.=B .c.c .cB|~A2~A2~D2 z2|c/=B/c/d/ c/d/.B c/B/c/d/ c/d/.B|~A2~A2~D2 z2||
W:
W:
W:  From Musica Viva - http://www.musicaviva.com
W:  the Internet center for free sheet music downloads.
